addons/butler_export_plugin/icon.svg

<?xml version="1.0" encoding="UTF-8" standalone="no"?>
<!-- Created with Inkscape (http://www.inkscape.org/) -->

<svg
   width="16"
   height="16"
   viewBox="0 0 4.2333332 4.2333332"
   version="1.1"
   id="svg1"
   sodipodi:docname="icon.svg"
   inkscape:export-filename="ic.svg"
   inkscape:export-xdpi="19.949867"
   inkscape:export-ydpi="19.949867"
   inkscape:version="1.3.2 (091e20e, 2023-11-25, custom)"
   xmlns:inkscape="http://www.inkscape.org/namespaces/inkscape"
   xmlns:sodipodi="http://sodipodi.sourceforge.net/DTD/sodipodi-0.dtd"
   xmlns="http://www.w3.org/2000/svg"
   xmlns:svg="http://www.w3.org/2000/svg">
  <sodipodi:namedview
     id="namedview1"
     pagecolor="#505050"
     bordercolor="#eeeeee"
     borderopacity="1"
     inkscape:showpageshadow="0"
     inkscape:pageopacity="0"
     inkscape:pagecheckerboard="0"
     inkscape:deskcolor="#505050"
     inkscape:zoom="50"
     inkscape:cx="7.3"
     inkscape:cy="7.52"
     inkscape:window-width="1920"
     inkscape:window-height="1009"
     inkscape:window-x="-8"
     inkscape:window-y="329"
     inkscape:window-maximized="1"
     inkscape:current-layer="svg1" />
  <defs
     id="defs1">
    <inkscape:path-effect
       effect="fillet_chamfer"
       id="path-effect1"
       is_visible="true"
       lpeversion="1"
       nodesatellites_param="F,0,0,1,0,0,0,1 @ F,0,0,1,0,0,0,1 @ F,0,0,1,0,0,0,1 @ F,0,0,1,0,0,0,1 @ F,0,0,1,0,0,0,1 @ F,0,0,1,0,0,0,1 @ F,0,0,1,0,0.17431161,0,1 @ F,0,0,1,0,0,0,1 @ F,0,0,1,0,0,0,1 @ F,0,0,1,0,0,0,1 @ F,0,0,1,0,0,0,1 @ F,0,0,1,0,0,0,1 @ F,0,0,1,0,0,0,1 @ F,0,0,1,0,0,0,1 @ F,0,0,1,0,0,0,1 @ F,0,0,1,0,0,0,1 | F,0,0,1,0,0,0,1 @ F,0,0,1,0,0,0,1 @ F,0,0,1,0,0,0,1 @ F,0,0,1,0,0,0,1 @ F,0,0,1,0,0,0,1 @ F,0,0,1,0,0,0,1 @ F,0,0,1,0,0,0,1 @ F,0,0,1,0,0,0,1 @ F,0,0,1,0,0,0,1 @ F,0,0,1,0,0,0,1 @ F,0,0,1,0,0,0,1 | F,0,0,1,0,0,0,1 @ F,0,0,1,0,0,0,1 @ F,0,0,1,0,0,0,1 @ F,0,0,1,0,0,0,1 @ F,0,0,1,0,0,0,1 @ F,0,0,1,0,0,0,1 @ F,0,0,1,0,0,0,1 @ F,0,0,1,0,0,0,1 @ F,0,0,1,0,0,0,1 @ F,0,0,1,0,0,0,1 @ F,0,0,1,0,0,0,1"
       radius="0"
       unit="px"
       method="auto"
       mode="F"
       chamfer_steps="1"
       flexible="false"
       use_knot_distance="true"
       apply_no_radius="true"
       apply_with_radius="true"
       only_selected="false"
       hide_knots="false" />
  </defs>
  <path
     d="m 3.7782491,1.9877686 c 0,0.1236815 -0.023419,0.2328777 -0.070257,0.3275888 C 3.661154,2.4100684 3.5981456,2.4880657 3.5189669,2.5493493 3.4252908,2.6228896 3.3221355,2.6752593 3.2095011,2.7064582 3.097982,2.7376571 2.955795,2.7532566 2.7829402,2.7532566 H 1.8997082 V 0.43889652 A 0.17431161,0.17431161 135 0 1 2.0740198,0.26458491 h 0.5633879 c 0.1817763,0 0.3178297,0.006686 0.4081602,0.0200565 0.090331,0.013371 0.176758,0.0412272 0.2592822,0.0835686 0.091446,0.0479126 0.1577997,0.10975333 0.1990618,0.1855222 0.041262,0.0746546 0.061893,0.1643515 0.061893,0.26909076 0,0.11811019 -0.03011,0.21894953 -0.090331,0.30251813 -0.06022,0.082454 -0.1405138,0.148752 -0.2408814,0.1988931 v 0.013371 c 0.168394,0.034541 0.3011018,0.1086388 0.3981235,0.2222924 0.097022,0.112539 0.1455328,0.2551627 0.1455331,0.427871 z M 3.2212107,0.86627854 c 0,-0.0601694 -0.010037,-0.11086766 -0.03011,-0.15209478 -0.020074,-0.0412271 -0.052414,-0.0746546 -0.097022,-0.10028227 -0.052414,-0.0300847 -0.11598,-0.0484698 -0.1906978,-0.0551553 -0.074718,-0.0078 -0.1672788,-0.0116996 -0.2776828,-0.0116996 H 2.2309202 V 1.2657362 H 2.659154 c 0.1037128,0 0.186237,-0.00501 0.2475725,-0.015043 0.061336,-0.011143 0.1182108,-0.033428 0.1706244,-0.066855 0.052415,-0.033427 0.089216,-0.076326 0.110404,-0.1286956 0.022304,-0.053484 0.033456,-0.11643855 0.033456,-0.18886406 z M 3.4336548,2.0011396 c 0,-0.1002823 -0.015055,-0.179951 -0.045166,-0.2390061 C 3.3583791,1.7030784 3.3037349,1.6529372 3.2245563,1.6117101 3.171027,1.5838539 3.1057883,1.5660259 3.0288401,1.5582262 2.953007,1.5493123 2.860446,1.5448553 2.7511573,1.5448553 H 2.2309202 v 0.9259396 h 0.4382705 c 0.1449749,0 0.2637429,-0.00724 0.3563038,-0.021727 0.092561,-0.015599 0.168394,-0.043455 0.2274991,-0.083568 0.062451,-0.043455 0.1081736,-0.093039 0.1371687,-0.148752 0.028995,-0.055712 0.043493,-0.1275814 0.043492,-0.2156083 z"
     id="text1"
     style="font-size:3.47269px;fill:#00ff00;stroke-width:0.4325;paint-order:stroke fill markers"
     aria-label="B"
     inkscape:path-effect="#path-effect1"
     inkscape:original-d="m 3.7782491,1.9877686 q 0,0.1855222 -0.070257,0.3275888 Q 3.6377349,2.4574239 3.5189669,2.5493493 3.3784527,2.6596598 3.2095011,2.7064582 3.0422224,2.7532566 2.7829402,2.7532566 H 1.8997082 V 0.26458491 h 0.7376995 q 0.2726644,0 0.4081602,0.0200565 0.1354959,0.0200565 0.2592822,0.0835686 0.1371686,0.0718689 0.1990618,0.1855222 0.061893,0.11198187 0.061893,0.26909076 0,0.17716529 -0.090331,0.30251813 -0.09033,0.1236814 -0.2408814,0.1988931 v 0.013371 q 0.252591,0.051812 0.3981235,0.2222924 0.1455326,0.1688085 0.1455331,0.427871 z M 3.2212107,0.86627854 q 0,-0.0902541 -0.03011,-0.15209478 Q 3.1609903,0.65234303 3.0940788,0.61390149 3.0154577,0.56877447 2.903381,0.55874624 2.7913042,0.54704664 2.6256982,0.54704664 H 2.2309202 V 1.2657362 H 2.659154 q 0.1555692,0 0.2475725,-0.015043 0.092004,-0.016714 0.1706244,-0.066855 0.078622,-0.050141 0.110404,-0.1286956 0.033456,-0.0802258 0.033456,-0.18886406 z M 3.4336548,2.0011396 q 0,-0.1504235 -0.045166,-0.2390061 Q 3.3433242,1.6735508 3.2245563,1.6117101 3.1442624,1.5699258 3.0288401,1.5582262 2.9150904,1.5448553 2.7511573,1.5448553 H 2.2309202 v 0.9259396 h 0.4382705 q 0.2174624,0 0.3563038,-0.021727 0.1388414,-0.023399 0.2274991,-0.083568 0.093676,-0.065183 0.1371687,-0.148752 0.043493,-0.083568 0.043492,-0.2156083 z" />
  <path
     id="rect1"
     style="display:inline;stroke-width:0.0465424"
     d="M 1.7161016,2.2466113 1.8442495,2.7437482 H 0.41338189 A 0.14879856,0.16067923 0 0 0 0.26458333,2.9044274 V 3.2350002 A 0.14879856,0.16067923 0 0 0 0.41338189,3.3956794 H 1.8442495 l -0.1281479,0.497137 a 0.05547613,0.05990556 0 0 0 0.084105,0.065989 L 2.9177159,3.1585193 a 0.09868059,0.10655965 0 0 0 0,-0.1776109 L 1.8002068,2.1806225 a 0.05547612,0.05990556 0 0 0 -0.084105,0.065989 z" />
</svg>

<?xml version="1.0" encoding="UTF-8"?>
<svg width="16" height="16" version="1.1" viewBox="0 0 4.2333 4.2333" xmlns="http://www.w3.org/2000/svg"><path d="m3.7782 1.9878c0 0.12368-0.023419 0.23288-0.070257 0.32759-0.046838 0.094711-0.10985 0.17271-0.18903 0.23399-0.093676 0.07354-0.19683 0.12591-0.30947 0.15711-0.11152 0.031199-0.25371 0.046798-0.42656 0.046798h-0.88323v-2.3144a0.17431 0.17431 135 0 1 0.17431-0.17431h0.56339c0.18178 0 0.31783 0.006686 0.40816 0.020056 0.090331 0.013371 0.17676 0.041227 0.25928 0.083569 0.091446 0.047913 0.1578 0.10975 0.19906 0.18552 0.041262 0.074655 0.061893 0.16435 0.061893 0.26909 0 0.11811-0.03011 0.21895-0.090331 0.30252-0.06022 0.082454-0.14051 0.14875-0.24088 0.19889v0.013371c0.16839 0.034541 0.3011 0.10864 0.39812 0.22229 0.097022 0.11254 0.14553 0.25516 0.14553 0.42787zm-0.55704-1.1215c0-0.060169-0.010037-0.11087-0.03011-0.15209-0.020074-0.041227-0.052414-0.074655-0.097022-0.10028-0.052414-0.030085-0.11598-0.04847-0.1907-0.055155-0.074718-0.0078-0.16728-0.0117-0.27768-0.0117h-0.39478v0.71869h0.42823c0.10371 0 0.18624-0.00501 0.24757-0.015043 0.061336-0.011143 0.11821-0.033428 0.17062-0.066855 0.052415-0.033427 0.089216-0.076326 0.1104-0.1287 0.022304-0.053484 0.033456-0.11644 0.033456-0.18886zm0.21244 1.1349c0-0.10028-0.015055-0.17995-0.045166-0.23901-0.03011-0.059055-0.084754-0.1092-0.16393-0.15042-0.053529-0.027856-0.11877-0.045684-0.19572-0.053484-0.075833-0.0089139-0.16839-0.013371-0.27768-0.013371h-0.52024v0.92594h0.43827c0.14497 0 0.26374-0.00724 0.3563-0.021727 0.092561-0.015599 0.16839-0.043455 0.2275-0.083568 0.062451-0.043455 0.10817-0.093039 0.13717-0.14875 0.028995-0.055712 0.043493-0.12758 0.043492-0.21561z" fill="#0f0" stroke-width=".4325" style="paint-order:stroke fill markers" aria-label="B"/><path d="m1.7161 2.2466 0.12815 0.49714h-1.4309a0.1488 0.16068 0 0 0-0.1488 0.16068v0.33057a0.1488 0.16068 0 0 0 0.1488 0.16068h1.4309l-0.12815 0.49714a0.055476 0.059906 0 0 0 0.084105 0.065989l1.1175-0.80029a0.098681 0.10656 0 0 0 0-0.17761l-1.1175-0.80029a0.055476 0.059906 0 0 0-0.084105 0.065989z" stroke-width=".046542"/></svg>
